;FLAVOR:RepRap
;TIME:3967
;Filament used: 3.09776m
;Layer height: 0.2
;Generated with Cura_SteamEngine 2.5.0
M190 S60
M104 S205
M109 S205
G21 ;metric values
G90 ;absolute positioning
M82 ;set extruder to absolute mode
M107 ;start with the fan off
G28 X0 Y0 ;move X/Y to min endstops
G28 Z0 ;move Z to min endstops
G1 Z15.0 F9000 ;move the platform down 15mm
G92 E0 ;zero the extruded length
G1 F200 E3 ;extrude 3mm of feed stock
G92 E0 ;zero the extruded length again
G1 F9000
M117 Printing...
;LAYER_COUNT:305
;LAYER:0
M107
G0 F2000 X77.756 Y99.701 Z0.2
;TYPE:SKIRT
G1 F1200 X78.198 Y99.398 E0.01782
G1 X78.681 Y99.163 E0.03569
G1 X79.192 Y99.003 E0.0535
G1 X79.722 Y98.92 E0.07134
G1 X80.009 Y98.909 E0.08089
G1 X139.993 Y98.909 E2.07597
G1 X140.528 Y98.949 E2.09381
G1 X141.051 Y99.068 E2.11165
G1 X141.55 Y99.263 E2.12947
G1 X142.015 Y99.531 E2.14732
G1 X142.435 Y99.864 E2.16515
G1 X142.801 Y100.256 E2.18299
G1 X143.104 Y100.698 E2.20081
G1 X143.339 Y101.181 E2.21868
G1 X143.499 Y101.692 E2.23649
G1 X143.582 Y102.222 E2.25433
G1 X143.593 Y102.509 E2.26388
G1 X143.591 Y117.491 E2.76218
G1 X143.551 Y118.026 E2.78003
G1 X143.432 Y118.549 E2.79787
G1 X143.237 Y119.049 E2.81572
G1 X142.969 Y119.513 E2.83354
G1 X142.636 Y119.933 E2.85137
G1 X142.244 Y120.299 E2.86921
G1 X141.801 Y120.603 E2.88707
G1 X141.319 Y120.837 E2.9049
G1 X140.807 Y120.997 E2.92274
G1 X140.277 Y121.08 E2.94058
G1 X139.991 Y121.091 E2.9501
G1 X80.009 Y121.091 E4.94511
G1 X79.474 Y121.051 E4.96295
G1 X78.951 Y120.932 E4.98079
G1 X78.452 Y120.737 E4.99861
G1 X77.987 Y120.469 E5.01646
G1 X77.567 Y120.136 E5.03429
G1 X77.201 Y119.744 E5.05213
G1 X76.898 Y119.302 E5.06995
G1 X76.663 Y118.819 E5.08782
G1 X76.503 Y118.308 E5.10562
G1 X76.42 Y117.778 E5.12347
G1 X76.409 Y117.491 E5.13302
G1 X76.409 Y102.509 E5.63132
G1 X76.449 Y101.974 E5.64917
G1 X76.568 Y101.451 E5.66701
G1 X76.763 Y100.952 E5.68483
G1 X77.031 Y100.487 E5.70268
G1 X77.364 Y100.067 E5.7205
G1 X77.756 Y99.701 E5.73834
G0 F2000 X78.145 Y99.908
G1 F1200 X78.578 Y99.647 E5.75516
G1 X79.046 Y99.457 E5.77196
G1 X79.539 Y99.344 E5.78878
G1 X80.009 Y99.309 E5.80445
G1 X139.993 Y99.309 E7.79953
G1 X140.497 Y99.349 E7.81635
G1 X140.988 Y99.468 E7.83315
G1 X141.455 Y99.662 E7.84997
G1 X141.885 Y99.928 E7.86679
G1 X142.268 Y100.258 E7.8836
G1 X142.594 Y100.645 E7.90043
G1 X142.855 Y101.078 E7.91725
G1 X143.045 Y101.546 E7.93405
G1 X143.158 Y102.039 E7.95087
G1 X143.193 Y102.509 E7.96654
G1 X143.191 Y117.491 E8.46485
G1 X143.151 Y117.995 E8.48166
G1 X143.032 Y118.487 E8.4985
G1 X142.837 Y118.953 E8.5153
G1 X142.571 Y119.383 E8.53212
G1 X142.241 Y119.766 E8.54893
G1 X141.855 Y120.092 E8.56574
G1 X141.422 Y120.353 E8.58255
G1 X140.953 Y120.543 E8.59938
G1 X140.461 Y120.656 E8.61617
G1 X139.991 Y120.691 E8.63185
G1 X80.009 Y120.691 E10.62686
G1 X79.505 Y120.651 E10.64367
G1 X79.014 Y120.532 E10.66048
G1 X78.547 Y120.338 E10.6773
G1 X78.117 Y120.072 E10.69411
G1 X77.734 Y119.742 E10.71093
G1 X77.408 Y119.355 E10.72776
G1 X77.147 Y118.922 E10.74458
G1 X76.957 Y118.454 E10.76138
G1 X76.844 Y117.961 E10.7782
G1 X76.809 Y117.491 E10.79387
G1 X76.809 Y102.509 E11.29218
G1 X76.849 Y102.005 E11.30899
G1 X76.968 Y101.514 E11.3258
G1 X77.162 Y101.047 E11.34262
G1 X77.428 Y100.617 E11.35943
G1 X77.758 Y100.234 E11.37625
G1 X78.145 Y99.908 E11.39308
G1 F1500 E4.89308
G0 F2000 X80.613 Y101.835
G0 X80.614 Y103.114
G0 X80.67 Y103.17
G0 X80.6 Y103.1
;TYPE:WALL-INNER
G1 F1500 E11.39308
G1 F1200 X139.2 Y103.099 E13.34212
G1 X139.4 Y103.099 E13.34877
G1 X139.4 Y103.299 E13.35308
G1 X139.4 Y116.9 E13.80545
G1 X80.6 Y116.9 E15.76115
G1 X80.6 Y103.1 E16.22014
G0 F2000 X80.67 Y103.17
G0 X85.082 Y108.083
G0 X85.152 Y108.153
G1 F1200 X84.585 Y109 E16.25404
G1 X84.385 Y110 E16.28796
G1 X84.585 Y110.999 E16.32184
G1 X85.152 Y111.846 E16.35574
G1 X86 Y112.414 E16.38969
G1 X87 Y112.613 E16.4236
G1 X87.999 Y112.414 E16.45748
G1 X88.848 Y111.846 E16.49146
G1 X89.414 Y110.999 E16.52534
G1 X89.614 Y110 E16.55923
G1 X89.414 Y109 E16.59314
G1 X88.848 Y108.153 E16.62703
G1 X87.999 Y107.585 E16.661
G1 X87 Y107.386 E16.69488
G1 X86 Y107.585 E16.72879
G1 X85.152 Y108.153 E16.76274
G0 F2000 X85.082 Y108.083
G0 X85.985 Y107.549
G0 X100.327 Y105.077
G0 X100.397 Y105.147
G1 F1200 X100.397 Y105.347 E16.76939
G1 X100.397 Y114.652 E17.07888
G1 X100.397 Y114.852 E17.08553
G1 X100.597 Y114.852 E17.08984
G1 X119.603 Y114.85 E17.72198
G1 X119.603 Y105.15 E18.0446
G1 X100.597 Y105.147 E18.67675
G1 X100.397 Y105.147 E18.68105
G0 F2000 X100.327 Y105.077
G0 X119.631 Y105.122
G0 X130.285 Y110
G0 X130.385 Y110
G1 F1200 X130.584 Y110.999 E18.71493
G1 X131.152 Y111.846 E18.74885
G1 X131.999 Y112.414 E18.78277
G1 X133 Y112.613 E18.81672
G1 X134 Y112.414 E18.85063
G1 X134.847 Y111.846 E18.88455
G1 X135.415 Y110.999 E18.91847
G1 X135.614 Y110 E18.95235
G1 X135.415 Y109 E18.98626
G1 X134.847 Y108.153 E19.02018
G1 X134 Y107.585 E19.0541
G1 X133 Y107.386 E19.08801
G1 X131.999 Y107.585 E19.12195
G1 X131.152 Y108.153 E19.15587
G1 X130.584 Y109 E19.18979
G1 X130.385 Y110 E19.22371
G0 F2000 X130.793 Y110
;TYPE:WALL-OUTER
G1 F1200 X130.961 Y110.843 E19.2523
G1 X131.44 Y111.558 E19.28092
G1 X132.155 Y112.037 E19.30954
G1 X133 Y112.205 E19.3382
G1 X133.844 Y112.037 E19.36682
G1 X134.559 Y111.558 E19.39545
G1 X135.038 Y110.843 E19.42407
G1 X135.206 Y110 E19.45266
G1 X135.038 Y109.156 E19.48128
G1 X134.559 Y108.441 E19.50991
G1 X133.844 Y107.962 E19.53853
G1 X133 Y107.794 E19.56715
G1 X132.155 Y107.962 E19.59581
G1 X131.44 Y108.441 E19.62443
G1 X130.961 Y109.156 E19.65306
G1 X130.793 Y110 E19.68168
G0 F2000 X130.832 Y110.196
G0 X130.341 Y110.292
G0 X130.345 Y110
G0 X130.548 Y108.985
G0 X131.124 Y108.125
G0 X131.984 Y107.549
G0 X139.33 Y103.169
G0 X139.6 Y102.699
G1 F1200 X139.8 Y102.699 E19.68833
G1 X139.8 Y102.899 E19.69264
G1 X139.8 Y117.3 E20.17162
G1 X80.2 Y117.3 E22.15392
G1 X80.2 Y102.7 E22.63952
G1 X139.6 Y102.699 E24.61517
G0 F2000 X139.8 Y102.699
G0 X139.33 Y103.169
G0 X119.703 Y105.55
G0 X119.203 Y105.55
G1 F1200 X100.997 Y105.547 E25.2207
G1 X100.797 Y105.547 E25.22736
G1 X100.797 Y105.747 E25.23166
G1 X100.797 Y114.252 E25.51454
G1 X100.797 Y114.452 E25.52119
G1 X100.997 Y114.452 E25.5255
G1 X119.203 Y114.45 E26.13103
G1 X119.203 Y105.55 E26.42705
G0 F2000 X119.003 Y105.55
G0 X119.004 Y105.05
G0 X100.369 Y105.119
G0 X89.696 Y110.097
G0 X89.206 Y110
G1 F1200 X89.037 Y109.156 E26.45568
G1 X88.56 Y108.441 E26.48427
G1 X87.843 Y107.962 E26.51295
G1 X87 Y107.794 E26.54154
G1 X86.156 Y107.962 E26.57016
G1 X85.44 Y108.441 E26.59881
G1 X84.962 Y109.156 E26.62742
G1 X84.793 Y110 E26.65604
G1 X84.962 Y110.843 E26.68464
G1 X85.44 Y111.558 E26.71325
G1 X86.156 Y112.037 E26.7419
G1 X87 Y112.205 E26.77052
G1 X87.843 Y112.037 E26.79911
G1 X88.56 Y111.558 E26.82779
G1 X89.037 Y110.843 E26.85638
G1 X89.206 Y110 E26.88497
G0 F2000 X89.167 Y109.804
G0 X89.695 Y109.494
;TYPE:SKIN
G1 F1200 X96.92 Y116.719 E27.22482
G1 X96.99 Y116.789
G0 F2000 X97.485 Y116.719
G1 F1200 X89.353 Y108.586 E27.60734
G1 X89.283 Y108.516
G0 F2000 X88.41 Y107.644
G1 F1200 X84.046 Y103.279 E27.81264
G1 X83.976 Y103.209
G0 F2000 X84.611 Y103.279
G1 F1200 X98.051 Y116.719 E28.44481
G1 X98.121 Y116.789
G0 F2000 X98.617 Y116.719
G1 F1200 X85.177 Y103.279 E29.07699
G1 X85.107 Y103.209
G0 F2000 X85.743 Y103.279
G1 F1200 X99.183 Y116.719 E29.70916
G1 X99.253 Y116.789
G0 F2000 X99.748 Y116.719
G1 F1200 X86.308 Y103.279 E30.34134
G1 X86.238 Y103.209
G0 F2000 X86.874 Y103.279
G1 F1200 X100.314 Y116.719 E30.97352
G1 X100.384 Y116.789
G0 F2000 X100.88 Y116.719
G1 F1200 X87.44 Y103.279 E31.60569
G1 X87.37 Y103.209
G0 F2000 X88.005 Y103.279
G1 F1200 X101.445 Y116.719 E32.23787
G1 X101.515 Y116.789
G0 F2000 X102.011 Y116.719
G1 F1200 X100.323 Y115.031 E32.31727
G1 X100.253 Y114.961
G0 F2000 X100.217 Y114.925
G1 F1200 X88.571 Y103.279 E32.86506
G1 X88.501 Y103.209
G0 F2000 X89.137 Y103.279
G1 F1200 X100.217 Y114.359 E33.38623
G1 X100.287 Y114.429
G0 F2000 X100.217 Y113.793
G1 F1200 X89.702 Y103.279 E33.8808
G1 X89.632 Y103.209
G0 F2000 X90.268 Y103.279
G1 F1200 X100.217 Y113.228 E34.34877
G1 X100.287 Y113.298
G0 F2000 X100.217 Y112.662
G1 F1200 X90.834 Y103.279 E34.79012
G1 X90.764 Y103.209
G0 F2000 X91.399 Y103.279
G1 F1200 X100.217 Y112.096 E35.20487
G1 X100.287 Y112.166
G0 F2000 X100.217 Y111.531
G1 F1200 X91.965 Y103.279 E35.59301
G1 X91.895 Y103.209
G0 F2000 X92.531 Y103.279
G1 F1200 X100.217 Y110.965 E35.95454
G1 X100.287 Y111.035
G0 F2000 X100.217 Y110.399
G1 F1200 X93.096 Y103.279 E36.28947
G1 X93.026 Y103.209
G0 F2000 X93.662 Y103.279
G1 F1200 X100.217 Y109.834 E36.59779
G1 X100.287 Y109.904
G0 F2000 X100.217 Y109.268
G1 F1200 X94.228 Y103.279 E36.8795
G1 X94.158 Y103.209
G0 F2000 X94.794 Y103.279
G1 F1200 X100.217 Y108.702 E37.13458
G1 X100.287 Y108.772
G0 F2000 X100.217 Y108.137
G1 F1200 X95.359 Y103.279 E37.36309
G1 X95.289 Y103.209
G0 F2000 X95.925 Y103.279
G1 F1200 X100.217 Y107.571 E37.56497
G1 X100.287 Y107.641
G0 F2000 X100.217 Y107.005
G1 F1200 X96.491 Y103.279 E37.74023
G1 X96.421 Y103.209
G0 F2000 X97.056 Y103.279
G1 F1200 X100.217 Y106.44 E37.88891
G1 X100.287 Y106.51
G0 F2000 X100.217 Y105.874
G1 F1200 X97.622 Y103.279 E38.01097
G1 X97.552 Y103.209
G0 F2000 X98.188 Y103.279
G1 F1200 X100.217 Y105.308 E38.10641
G1 X100.287 Y105.378
G0 F2000 X100.44 Y104.965
G1 F1200 X98.753 Y103.279 E38.18574
G1 X98.683 Y103.209
G0 F2000 X99.319 Y103.279
G1 F1200 X101.005 Y104.965 E38.26504
G1 X101.075 Y105.035
G0 F2000 X101.571 Y104.965
G1 F1200 X99.885 Y103.279 E38.34435
G1 X99.815 Y103.209
G0 F2000 X100.45 Y103.279
G1 F1200 X102.137 Y104.965 E38.42367
G1 X102.207 Y105.035
G0 F2000 X102.703 Y104.965
G1 F1200 X101.016 Y103.279 E38.503
G1 X100.946 Y103.209
G0 F2000 X101.582 Y103.279
G1 F1200 X103.268 Y104.965 E38.58231
G1 X103.338 Y105.035
G0 F2000 X103.835 Y104.966
G1 F1200 X102.147 Y103.279 E38.66168
G1 X102.077 Y103.209
G0 F2000 X102.713 Y103.279
G1 F1200 X104.4 Y104.966 E38.74103
G1 X104.47 Y105.036
G0 F2000 X104.966 Y104.966
G1 F1200 X103.279 Y103.279 E38.82038
G1 X103.209 Y103.209
G0 F2000 X103.844 Y103.279
G1 F1200 X105.532 Y104.966 E38.89976
G1 X105.602 Y105.036
G0 F2000 X106.097 Y104.966
G1 F1200 X104.41 Y103.279 E38.97911
G1 X104.34 Y103.209
G0 F2000 X104.976 Y103.279
G1 F1200 X106.663 Y104.966 E39.05846
G1 X106.733 Y105.036
G0 F2000 X107.229 Y104.967
G1 F1200 X105.542 Y103.279 E39.13784
G1 X105.472 Y103.209
G0 F2000 X106.107 Y103.279
G1 F1200 X107.795 Y104.967 E39.21723
G1 X107.865 Y105.037
G0 F2000 X108.361 Y104.967
G1 F1200 X106.673 Y103.279 E39.29663
G1 X106.603 Y103.209
G0 F2000 X107.239 Y103.279
G1 F1200 X108.926 Y104.967 E39.37601
G1 X108.996 Y105.037
G0 F2000 X109.492 Y104.967
G1 F1200 X107.804 Y103.279 E39.45541
G1 X107.734 Y103.209
G0 F2000 X108.37 Y103.279
G1 F1200 X110.059 Y104.967 E39.53483
G1 X110.129 Y105.037
G0 F2000 X110.624 Y104.967
G1 F1200 X108.936 Y103.279 E39.61423
G1 X108.866 Y103.209
G0 F2000 X109.501 Y103.279
G1 F1200 X111.19 Y104.967 E39.69365
G1 X111.26 Y105.037
G0 F2000 X111.756 Y104.967
G1 F1200 X110.067 Y103.279 E39.77307
G1 X109.997 Y103.209
G0 F2000 X110.633 Y103.279
G1 F1200 X112.321 Y104.967 E39.85247
G1 X112.391 Y105.037
G0 F2000 X112.887 Y104.967
G1 F1200 X111.198 Y103.279 E39.93189
G1 X111.128 Y103.209
G0 F2000 X111.764 Y103.279
G1 F1200 X113.453 Y104.968 E40.01134
G1 X113.523 Y105.038
G0 F2000 X114.019 Y104.968
G1 F1200 X112.33 Y103.279 E40.09078
G1 X112.26 Y103.209
G0 F2000 X112.895 Y103.279
G1 F1200 X114.585 Y104.968 E40.17025
G1 X114.655 Y105.038
G0 F2000 X115.15 Y104.968
G1 F1200 X113.461 Y103.279 E40.24969
G1 X113.391 Y103.209
G0 F2000 X114.027 Y103.279
G1 F1200 X115.716 Y104.968 E40.32914
G1 X115.786 Y105.038
G0 F2000 X116.282 Y104.968
G1 F1200 X114.593 Y103.279 E40.40859
G1 X114.523 Y103.209
G0 F2000 X115.158 Y103.279
G1 F1200 X116.848 Y104.969 E40.48808
G1 X116.918 Y105.039
G0 F2000 X117.414 Y104.969
G1 F1200 X115.724 Y103.279 E40.56757
G1 X115.654 Y103.209
G0 F2000 X116.29 Y103.279
G1 F1200 X117.98 Y104.969 E40.64706
G1 X118.05 Y105.039
G0 F2000 X118.545 Y104.969
G1 F1200 X116.855 Y103.279 E40.72656
G1 X116.785 Y103.209
G0 F2000 X117.421 Y103.279
G1 F1200 X119.111 Y104.969 E40.80605
G1 X119.181 Y105.039
G0 F2000 X119.677 Y104.969
G1 F1200 X117.987 Y103.279 E40.88554
G1 X117.917 Y103.209
G0 F2000 X118.552 Y103.279
G1 F1200 X131.992 Y116.719 E41.51772
G1 X132.062 Y116.789
G0 F2000 X131.427 Y116.719
G1 F1200 X119.781 Y105.073 E42.06551
G1 X119.711 Y105.003
G0 F2000 X119.781 Y105.639
G1 F1200 X130.861 Y116.719 E42.58668
G1 X130.931 Y116.789
G0 F2000 X130.295 Y116.719
G1 F1200 X119.781 Y106.205 E43.08122
G1 X119.711 Y106.135
G0 F2000 X119.781 Y106.771
G1 F1200 X129.73 Y116.719 E43.54917
G1 X129.8 Y116.789
G0 F2000 X129.164 Y116.719
G1 F1200 X119.781 Y107.336 E43.99052
G1 X119.711 Y107.266
G0 F2000 X119.781 Y107.902
G1 F1200 X128.598 Y116.719 E44.40524
G1 X128.668 Y116.789
G0 F2000 X128.032 Y116.719
G1 F1200 X119.781 Y108.468 E44.79335
G1 X119.711 Y108.398
G0 F2000 X119.781 Y109.033
G1 F1200 X127.467 Y116.719 E45.15487
G1 X127.537 Y116.789
G0 F2000 X126.901 Y116.719
G1 F1200 X119.781 Y109.599 E45.48977
G1 X119.711 Y109.529
G0 F2000 X119.781 Y110.165
G1 F1200 X126.335 Y116.719 E45.79805
G1 X126.405 Y116.789
G0 F2000 X125.77 Y116.719
G1 F1200 X119.781 Y110.73 E46.07976
G1 X119.711 Y110.66
G0 F2000 X119.781 Y111.296
G1 F1200 X125.204 Y116.719 E46.33484
G1 X125.274 Y116.789
G0 F2000 X124.638 Y116.719
G1 F1200 X119.781 Y111.862 E46.5633
G1 X119.711 Y111.792
G0 F2000 X119.781 Y112.427
G1 F1200 X124.073 Y116.719 E46.76518
G1 X124.143 Y116.789
G0 F2000 X123.507 Y116.719
G1 F1200 X119.781 Y112.993 E46.94044
G1 X119.711 Y112.923
G0 F2000 X119.781 Y113.559
G1 F1200 X122.941 Y116.719 E47.08908
G1 X123.011 Y116.789
G0 F2000 X122.376 Y116.719
G1 F1200 X119.781 Y114.124 E47.21114
G1 X119.711 Y114.054
G0 F2000 X119.781 Y114.69
G1 F1200 X121.81 Y116.719 E47.30658
G1 X121.88 Y116.789
G0 F2000 X121.244 Y116.719
G1 F1200 X119.556 Y115.03 E47.386
G1 X119.486 Y114.96
G0 F2000 X118.99 Y115.03
G1 F1200 X120.679 Y116.719 E47.46544
G1 X120.749 Y116.789
G0 F2000 X120.113 Y116.719
G1 F1200 X118.424 Y115.03 E47.54489
G1 X118.354 Y114.96
G0 F2000 X117.859 Y115.03
G1 F1200 X119.547 Y116.719 E47.62431
G1 X119.617 Y116.789
G0 F2000 X118.982 Y116.719
G1 F1200 X117.293 Y115.03 E47.70376
G1 X117.223 Y114.96
G0 F2000 X116.727 Y115.03
G1 F1200 X118.416 Y116.719 E47.7832
G1 X118.486 Y116.789
G0 F2000 X117.85 Y116.719
G1 F1200 X116.162 Y115.03 E47.86262
G1 X116.092 Y114.96
G0 F2000 X115.596 Y115.03
G1 F1200 X117.284 Y116.719 E47.94204
G1 X117.354 Y116.789
G0 F2000 X116.719 Y116.719
G1 F1200 X115.03 Y115.03 E48.02149
G1 X114.96 Y114.96
G0 F2000 X114.465 Y115.03
G1 F1200 X116.153 Y116.719 E48.10091
G1 X116.223 Y116.789
G0 F2000 X115.587 Y116.719
G1 F1200 X113.899 Y115.03 E48.18033
G1 X113.829 Y114.96
G0 F2000 X113.333 Y115.03
G1 F1200 X115.022 Y116.719 E48.25978
G1 X115.092 Y116.789
G0 F2000 X114.456 Y116.719
G1 F1200 X112.767 Y115.03 E48.33922
G1 X112.697 Y114.96
G0 F2000 X112.202 Y115.03
G1 F1200 X113.89 Y116.719 E48.41865
G1 X113.96 Y116.789
G0 F2000 X113.325 Y116.719
G1 F1200 X111.636 Y115.03 E48.49809
G1 X111.566 Y114.96
G0 F2000 X111.07 Y115.03
G1 F1200 X112.759 Y116.719 E48.57754
G1 X112.829 Y116.789
G0 F2000 X112.193 Y116.719
G1 F1200 X110.505 Y115.03 E48.65696
G1 X110.435 Y114.96
G0 F2000 X109.94 Y115.031
G1 F1200 X111.628 Y116.719 E48.73636
G1 X111.698 Y116.789
G0 F2000 X111.062 Y116.719
G1 F1200 X109.374 Y115.031 E48.81576
G1 X109.304 Y114.961
G0 F2000 X108.808 Y115.031
G1 F1200 X110.496 Y116.719 E48.89515
G1 X110.566 Y116.789
G0 F2000 X109.931 Y116.719
G1 F1200 X108.243 Y115.031 E48.97455
G1 X108.173 Y114.961
G0 F2000 X107.677 Y115.031
G1 F1200 X109.365 Y116.719 E49.05395
G1 X109.435 Y116.789
G0 F2000 X108.799 Y116.719
G1 F1200 X107.111 Y115.031 E49.13335
G1 X107.041 Y114.961
G0 F2000 X106.546 Y115.031
G1 F1200 X108.234 Y116.719 E49.21275
G1 X108.304 Y116.789
G0 F2000 X107.668 Y116.719
G1 F1200 X105.98 Y115.031 E49.29215
G1 X105.91 Y114.961
G0 F2000 X105.414 Y115.031
G1 F1200 X107.102 Y116.719 E49.37154
G1 X107.172 Y116.789
G0 F2000 X106.536 Y116.719
