;FLAVOR:RepRap
;TIME:2496
;Filament used: 1.22646m
;Layer height: 0.2
;Generated with Cura_SteamEngine 2.5.0
M190 S60
M104 S205
M109 S205
G21 ;metric values
G90 ;absolute positioning
M82 ;set extruder to absolute mode
M107 ;start with the fan off
G28 X0 Y0 ;move X/Y to min endstops
G28 Z0 ;move Z to min endstops
G1 Z15.0 F9000 ;move the platform down 15mm
G92 E0 ;zero the extruded length
G1 F200 E3 ;extrude 3mm of feed stock
G92 E0 ;zero the extruded length again
G1 F9000
M117 Printing...
;LAYER_COUNT:110
;LAYER:0
M107
G0 F2000 X61.444 Y77.785 Z0.2
;TYPE:SKIRT
G1 F1200 X61.877 Y77.524 E0.01682
G1 X62.345 Y77.334 E0.03362
G1 X62.838 Y77.221 E0.05044
G1 X63.307 Y77.186 E0.06608
G1 X97.045 Y77.177 E1.18821
G1 X102.571 Y77.021 E1.37208
G1 X108.034 Y76.556 E1.55444
G1 X114.478 Y75.611 E1.77106
G1 X114.942 Y75.577 E1.78653
G1 X168.922 Y75.578 E3.58191
G1 X169.426 Y75.618 E3.59873
G1 X169.917 Y75.737 E3.61553
G1 X170.384 Y75.932 E3.63236
G1 X170.814 Y76.197 E3.64916
G1 X171.197 Y76.528 E3.666
G1 X171.523 Y76.914 E3.68281
G1 X171.784 Y77.347 E3.69962
G1 X171.974 Y77.815 E3.71642
G1 X172.087 Y78.308 E3.73324
G1 X172.122 Y78.778 E3.74892
G1 X172.122 Y132.758 E5.5443
G1 X172.082 Y133.262 E5.56112
G1 X171.963 Y133.753 E5.57792
G1 X171.769 Y134.22 E5.59474
G1 X171.503 Y134.65 E5.61156
G1 X171.173 Y135.033 E5.62837
G1 X170.786 Y135.359 E5.6452
G1 X170.353 Y135.62 E5.66202
G1 X169.885 Y135.81 E5.67882
G1 X169.392 Y135.923 E5.69564
G1 X168.922 Y135.958 E5.71131
G1 X114.913 Y135.953 E7.50766
G1 X114.409 Y135.913 E7.52448
G1 X114.122 Y135.854 E7.53422
G1 X112.167 Y135.356 E7.60132
G1 X106.761 Y134.191 E7.78525
G1 X104.117 Y133.743 E7.87445
G1 X98.672 Y133.048 E8.05702
G1 X93.191 Y132.661 E8.23977
G1 X89.118 Y132.576 E8.37527
G1 X63.307 Y132.566 E9.23375
G1 X62.803 Y132.526 E9.25056
G1 X62.311 Y132.407 E9.2674
G1 X61.845 Y132.212 E9.2842
G1 X61.415 Y131.946 E9.30102
G1 X61.032 Y131.616 E9.31783
G1 X60.706 Y131.229 E9.33466
G1 X60.445 Y130.796 E9.35148
G1 X60.256 Y130.327 E9.3683
G1 X60.143 Y129.835 E9.38509
G1 X60.108 Y129.366 E9.40073
G1 X60.108 Y80.386 E11.02981
G1 X60.148 Y79.882 E11.04663
G1 X60.267 Y79.391 E11.06343
G1 X60.461 Y78.924 E11.08025
G1 X60.727 Y78.494 E11.09707
G1 X61.057 Y78.111 E11.11388
G1 X61.444 Y77.785 E11.13071
G1 F1500 E4.63071
G0 F2000 X63.913 Y79.712
G0 X63.913 Y80.991
G0 X64.319 Y81.077
G0 X64.319 Y80.977
;TYPE:WALL-INNER
G1 F1500 E11.13071
G1 F1200 X64.409 Y80.977 E11.1337
G1 X64.697 Y80.977 E11.14328
G1 X64.915 Y80.977 E11.15053
G1 X64.697 Y81.087
G1 X64.409 Y81.299 E11.15647
G1 X64.347 Y81.364 E11.15918
G1 X64.28 Y81.435 E11.16243
G1 X64.164 Y81.557 E11.16803
G1 X63.963 Y81.851 E11.17988
G1 X63.899 Y81.994 E11.18509
G1 X63.899 Y81.851
G1 X63.899 Y81.557
G1 X63.899 Y81.388 E11.18983
G1 X63.899 Y80.977 E11.2035
G1 X64.319 Y80.977 E11.21747
G1 F1500 E4.71747
G0 F2000 X64.319 Y81.077
G0 X64.896 Y80.981
G0 X66.706 Y80.98
G0 X66.884 Y81.027
G0 X66.744 Y81
G1 F1500 E11.21747
G1 F1200 X66.687 Y80.977 E11.21951
G1 X66.744 Y80.977
G1 X67.048 Y80.977 E11.22955
G1 X67.301 Y80.977 E11.23797
G1 X108.319 Y80.977 E12.60223
G1 X108.409 Y80.977 E12.60522
G1 X108.697 Y80.977 E12.6148
G1 X108.915 Y80.977 E12.62205
G1 X108.697 Y81.087
G1 X108.409 Y81.299 E12.62799
G1 X108.347 Y81.364 E12.6307
G1 X108.164 Y81.557 E12.63955
G1 X107.963 Y81.851 E12.65139
G1 X107.818 Y82.176 E12.66323
G1 X107.726 Y82.521 E12.67511
G1 X107.697 Y82.877 E12.68699
G1 X107.726 Y83.232 E12.69883
G1 X107.818 Y83.578 E12.71074
G1 X107.963 Y83.903 E12.72258
G1 X108.164 Y84.197 E12.73442
G1 X108.409 Y84.455 E12.74626
G1 X108.697 Y84.667 E12.75815
G1 X109.016 Y84.828 E12.77004
G1 X109.356 Y84.931 E12.78185
G1 X109.708 Y84.978 E12.79366
G1 X110.067 Y84.962 E12.80562
G1 X110.414 Y84.887 E12.81742
G1 X110.743 Y84.754 E12.82923
G1 X111.047 Y84.568 E12.84108
G1 X111.302 Y84.344 E12.85237
G1 X111.316 Y84.332 E12.85298
G1 X111.54 Y84.054 E12.86486
G1 X111.698 Y83.771 E12.87564
G1 X111.698 Y84.054
G1 X111.698 Y84.332 E12.87873
G1 X111.698 Y84.351 E12.87935
G1 X111.698 Y125.402 E14.24471
G1 X111.698 Y125.421 E14.24534
G1 X111.698 Y125.699 E14.25459
G1 X111.698 Y125.982 E14.264
G1 X111.54 Y125.699
G1 X111.316 Y125.421 E14.2719
G1 X111.302 Y125.409 E14.2725
G1 X111.047 Y125.185 E14.28379
G1 X110.743 Y124.999 E14.29564
G1 X110.414 Y124.866 E14.30745
G1 X110.067 Y124.791 E14.31926
G1 X109.708 Y124.775 E14.33121
G1 X109.356 Y124.822 E14.34302
G1 X109.016 Y124.925 E14.35483
G1 X108.697 Y125.086 E14.36672
G1 X108.409 Y125.298 E14.37861
G1 X108.164 Y125.556 E14.39045
G1 X107.963 Y125.85 E14.40229
G1 X107.818 Y126.175 E14.41413
G1 X107.726 Y126.52 E14.42601
G1 X107.697 Y126.876 E14.43788
G1 X107.726 Y127.231 E14.44973
G1 X107.818 Y127.577 E14.46164
G1 X107.963 Y127.902 E14.47348
G1 X108.164 Y128.196 E14.48532
G1 X108.347 Y128.389 E14.49417
G1 X108.409 Y128.454 E14.49716
G1 X108.697 Y128.666 E14.50905
G1 X108.915 Y128.776 E14.51717
G1 X108.697 Y128.776
G1 X108.409 Y128.776 E14.51823
G1 X108.319 Y128.776 E14.52096
G1 X67.301 Y128.776 E15.88522
G1 X67.048 Y128.776 E15.89364
G1 X66.744 Y128.776 E15.90375
G1 X66.687 Y128.776 E15.90564
G1 X66.744 Y128.753
G1 X67.048 Y128.567
G1 X67.238 Y128.4 E15.91217
G1 X67.317 Y128.331 E15.91566
G1 X67.541 Y128.053 E15.92754
G1 X67.715 Y127.741 E15.93942
G1 X67.833 Y127.405 E15.95126
G1 X67.89 Y127.068 E15.96263
G1 X67.899 Y126.876 E15.96902
G1 X67.89 Y126.684 E15.97542
G1 X67.833 Y126.347 E15.98678
G1 X67.715 Y126.011 E15.99863
G1 X67.541 Y125.699 E16.01051
G1 X67.317 Y125.421 E16.02238
G1 X67.048 Y125.185 E16.03429
G1 X66.744 Y124.999 E16.04614
G1 X66.415 Y124.866 E16.05794
G1 X66.067 Y124.791 E16.06978
G1 X65.708 Y124.775 E16.08174
G1 X65.356 Y124.822 E16.09355
G1 X65.016 Y124.925 E16.10536
G1 X64.697 Y125.086 E16.11725
G1 X64.409 Y125.298 E16.12914
G1 X64.28 Y125.434 E16.13538
G1 X64.164 Y125.556 E16.14098
G1 X63.963 Y125.85 E16.15282
G1 X63.899 Y125.993 E16.15803
G1 X63.899 Y125.85
G1 X63.899 Y125.556
G1 X63.899 Y125.387 E16.16277
G1 X63.899 Y84.366 E17.52714
G1 X63.899 Y84.197 E17.53276
G1 X63.899 Y83.903 E17.54254
G1 X63.899 Y83.76 E17.54729
G1 X63.963 Y83.903
G1 X64.164 Y84.197 E17.54797
G1 X64.28 Y84.319 E17.55269
G1 X64.409 Y84.455 E17.55892
G1 X64.697 Y84.667 E17.57082
G1 X65.016 Y84.828 E17.5827
G1 X65.356 Y84.931 E17.59452
G1 X65.708 Y84.978 E17.60633
G1 X66.067 Y84.962 E17.61828
G1 X66.415 Y84.887 E17.63012
G1 X66.744 Y84.754 E17.64193
G1 X67.048 Y84.568 E17.65378
G1 X67.317 Y84.332 E17.66568
G1 X67.541 Y84.054 E17.67756
G1 X67.715 Y83.742 E17.68944
G1 X67.833 Y83.406 E17.70128
G1 X67.89 Y83.069 E17.71265
G1 X67.899 Y82.877 E17.71904
G1 X67.89 Y82.685 E17.72544
G1 X67.833 Y82.348 E17.7368
G1 X67.715 Y82.012 E17.74865
G1 X67.541 Y81.7 E17.76053
G1 X67.317 Y81.422 E17.77241
G1 X67.238 Y81.353 E17.77589
G1 X67.048 Y81.186 E17.78101
G1 X66.744 Y81
G0 F2000 X66.884 Y81.027
G0 X67.345 Y81.395
G0 X69.012 Y83.685
G0 X69.05 Y83.777
G1 F1200 X66.699 Y86.128 E17.89159
G1 X66.699 Y123.625 E19.13875
G1 X69.05 Y125.976 E19.24933
G1 X106.548 Y125.976 E20.49652
G1 X108.899 Y123.625 E20.6071
G1 X108.899 Y86.128 E21.85426
G1 X106.548 Y83.777 E21.96484
G1 X69.05 Y83.777 E23.21203
G1 F1500 E16.71203
G0 F2000 X69.012 Y83.685
G0 X107.946 Y81.842
G0 X109.152 Y82.354
G0 X110.173 Y82.133
G0 X110.705 Y80.98
G0 X110.883 Y81.027
G0 X110.743 Y81
G1 F1500 E23.21203
G1 F1200 X110.686 Y80.977 E23.21408
G1 X110.743 Y80.977
G1 X111.047 Y80.977 E23.22411
G1 X111.3 Y80.977 E23.23253
G1 X111.698 Y80.977 E23.24577
G1 X111.698 Y81.403 E23.25993
G1 X111.698 Y81.422 E23.26057
G1 X111.698 Y81.7 E23.26981
G1 X111.698 Y81.983 E23.27923
G1 X111.54 Y81.7
G1 X111.316 Y81.422 E23.28713
G1 X111.302 Y81.41 E23.28773
G1 X111.237 Y81.353 E23.2906
G1 X111.047 Y81.186 E23.29572
G1 X110.743 Y81
G1 F1500 E16.79572
G0 F2000 X110.883 Y81.027
G0 X111.33 Y81.409
G0 X110.487 Y82.409
G0 X110.488 Y83.365
G0 X110.488 Y83.445
G0 X110.601 Y126.501
G0 X110.601 Y126.581
G0 X110.604 Y127.088
G0 X111.693 Y127.789
G0 X111.673 Y127.866
G0 X111.698 Y127.77
G1 F1500 E23.29572
G1 F1200 X111.698 Y128.053 E23.30513
G1 X111.698 Y128.331 E23.31438
G1 X111.698 Y128.35 E23.31501
G1 X111.698 Y128.776 E23.32918
G1 X111.3 Y128.776 E23.34241
G1 X111.047 Y128.776 E23.35083
G1 X110.743 Y128.776 E23.36094
G1 X110.686 Y128.776 E23.36284
G1 X110.743 Y128.753
G1 X111.047 Y128.567
G1 X111.237 Y128.4 E23.36936
G1 X111.302 Y128.343 E23.37224
G1 X111.316 Y128.331 E23.37284
G1 X111.54 Y128.053 E23.377
G1 X111.698 Y127.77 E23.37721
G1 F1500 E16.87721
G0 F2000 X111.673 Y127.866
G0 X111.556 Y128.064
G0 X110.4 Y127.453
G0 X109.193 Y127.458
G0 X109.113 Y127.458
G0 X66.246 Y127.644
G0 X66.166 Y127.644
G0 X65.486 Y127.648
G0 X64.896 Y128.772
G0 X64.645 Y128.751
G0 X64.697 Y128.666
G1 F1500 E23.37721
G1 F1200 X64.915 Y128.776 E23.38533
G1 X64.697 Y128.776
G1 X64.409 Y128.776 E23.39463
G1 X64.319 Y128.776 E23.39763
G1 X63.899 Y128.776 E23.4116
G1 X63.899 Y128.365 E23.42527
G1 X63.899 Y128.196 E23.43089
G1 X63.899 Y127.902 E23.44067
G1 X63.899 Y127.759 E23.44542
G1 X63.963 Y127.902
G1 X64.164 Y128.196 E23.4461
G1 X64.28 Y128.319 E23.45084
G1 X64.347 Y128.389 E23.45406
G1 X64.409 Y128.454 E23.45678
G1 X64.697 Y128.666 E23.4584
G0 F2000 X64.907 Y128.324
;TYPE:WALL-OUTER
G1 F1200 X65.165 Y128.454 E23.46801
G1 X65.441 Y128.538 E23.4776
G1 X65.726 Y128.576 E23.48717
G1 X66.015 Y128.563 E23.49679
G1 X66.297 Y128.502 E23.50638
G1 X66.564 Y128.394 E23.51596
G1 X66.81 Y128.244 E23.52555
G1 X67.027 Y128.053 E23.53516
G1 X67.208 Y127.828 E23.54477
G1 X67.349 Y127.576 E23.55437
G1 X67.444 Y127.304 E23.56395
G1 X67.492 Y127.025 E23.57337
G1 X67.499 Y126.876 E23.57833
G1 X67.492 Y126.727 E23.58329
G1 X67.444 Y126.448 E23.59271
G1 X67.349 Y126.176 E23.60229
G1 X67.208 Y125.924 E23.61189
G1 X67.027 Y125.699 E23.6215
G1 X66.81 Y125.508 E23.63111
G1 X66.564 Y125.358 E23.6407
G1 X66.297 Y125.25 E23.65028
G1 X66.015 Y125.189 E23.65987
G1 X65.726 Y125.176 E23.66949
G1 X65.441 Y125.214 E23.67906
G1 X65.165 Y125.298 E23.68865
G1 X64.907 Y125.428 E23.69826
G1 X64.675 Y125.599 E23.70785
G1 X64.476 Y125.808 E23.71745
G1 X64.314 Y126.046 E23.72702
G1 X64.196 Y126.309 E23.73661
G1 X64.122 Y126.588 E23.74621
G1 X64.098 Y126.876 E23.75582
G1 X64.122 Y127.163 E23.7654
G1 X64.196 Y127.443 E23.77503
G1 X64.314 Y127.706 E23.78462
G1 X64.476 Y127.944 E23.7942
G1 X64.675 Y128.153 E23.80379
G1 X64.907 Y128.324 E23.81338
G0 F2000 X65.086 Y128.414
G0 X64.705 Y128.726
G0 X63.969 Y128.706
G0 X63.499 Y129.176
G1 F1200 X63.499 Y80.577 E25.42979
G1 X112.098 Y80.577 E27.0462
G1 X112.098 Y129.176 E28.66261
G1 X63.499 Y129.176 E30.27902
G0 F2000 X63.499 Y128.976
G1 F1500 E23.77902
G0 F2000 X63.969 Y128.706
G0 X63.902 Y127.778
G0 X63.946 Y125.841
G0 X64.133 Y125.531
G0 X64.677 Y125.052
G0 X66.599 Y123.459
G0 X67.099 Y123.459
G1 F1500 E30.27902
G1 F1200 X69.216 Y125.576 E30.3786
G1 X106.382 Y125.576 E31.61474
G1 X108.499 Y123.459 E31.71432
G1 X108.499 Y86.294 E32.95043
G1 X106.382 Y84.177 E33.05001
G1 X69.216 Y84.177 E34.28615
G1 X67.099 Y86.294 E34.38573
G1 X67.099 Y123.459 E35.62184
G0 F2000 X67.24 Y123.6
G0 X66.886 Y123.952
G0 X69.035 Y126.012
G0 X107.601 Y126.835
G0 X108.098 Y126.876
G1 F1200 X108.122 Y127.163 E35.63142
G1 X108.196 Y127.443 E35.64106
G1 X108.314 Y127.706 E35.65064
G1 X108.476 Y127.944 E35.66022
G1 X108.675 Y128.153 E35.66982
G1 X108.907 Y128.324 E35.6794
G1 X109.165 Y128.454 E35.68901
G1 X109.441 Y128.538 E35.69861
G1 X109.726 Y128.576 E35.70817
G1 X110.015 Y128.563 E35.71779
G1 X110.296 Y128.502 E35.72736
G1 X110.563 Y128.394 E35.73694
G1 X110.809 Y128.244 E35.74652
G1 X111.026 Y128.053 E35.75613
G1 X111.207 Y127.828 E35.76574
G1 X111.348 Y127.576 E35.77534
G1 X111.443 Y127.304 E35.78493
G1 X111.491 Y127.025 E35.79434
G1 X111.498 Y126.876 E35.7993
G1 X111.491 Y126.727 E35.80426
G1 X111.443 Y126.448 E35.81368
G1 X111.348 Y126.176 E35.82326
G1 X111.207 Y125.924 E35.83287
G1 X111.026 Y125.699 E35.84247
G1 X110.809 Y125.508 E35.85209
G1 X110.563 Y125.358 E35.86167
G1 X110.296 Y125.25 E35.87125
G1 X110.015 Y125.189 E35.88081
G1 X109.726 Y125.176 E35.89043
G1 X109.441 Y125.214 E35.9
G1 X109.165 Y125.298 E35.90959
G1 X108.907 Y125.428 E35.9192
G1 X108.675 Y125.599 E35.92879
G1 X108.476 Y125.808 E35.93839
G1 X108.314 Y126.046 E35.94796
G1 X108.196 Y126.309 E35.95755
G1 X108.122 Y126.588 E35.96715
G1 X108.098 Y126.876 E35.97676
G0 F2000 X108.114 Y127.075
G0 X107.616 Y127.115
G0 X107.726 Y124.835
G0 X108.935 Y123.64
G0 X109.66 Y85.072
G0 X109.726 Y84.577
G1 F1200 X110.015 Y84.564 E35.98638
G1 X110.296 Y84.503 E35.99595
G1 X110.563 Y84.395 E36.00553
G1 X110.809 Y84.245 E36.01511
G1 X111.026 Y84.054 E36.02473
G1 X111.207 Y83.829 E36.03433
G1 X111.348 Y83.577 E36.04393
G1 X111.443 Y83.305 E36.05352
G1 X111.491 Y83.026 E36.06293
G1 X111.498 Y82.877 E36.06789
G1 X111.491 Y82.728 E36.07286
G1 X111.443 Y82.449 E36.08227
G1 X111.348 Y82.177 E36.09185
G1 X111.207 Y81.925 E36.10146
G1 X111.026 Y81.7 E36.11106
G1 X110.809 Y81.509 E36.12068
G1 X110.563 Y81.359 E36.13026
G1 X110.296 Y81.251 E36.13984
G1 X110.015 Y81.19 E36.1494
G1 X109.726 Y81.177 E36.15903
G1 X109.441 Y81.215 E36.16859
G1 X109.165 Y81.299 E36.17818
G1 X108.907 Y81.429 E36.18779
G1 X108.675 Y81.6 E36.19738
G1 X108.476 Y81.809 E36.20698
G1 X108.314 Y82.047 E36.21655
G1 X108.196 Y82.31 E36.22614
G1 X108.122 Y82.589 E36.23574
G1 X108.098 Y82.877 E36.24535
G1 X108.122 Y83.164 E36.25493
G1 X108.196 Y83.444 E36.26456
G1 X108.314 Y83.707 E36.27415
G1 X108.476 Y83.945 E36.28373
G1 X108.675 Y84.154 E36.29333
G1 X108.907 Y84.325 E36.30291
G1 X109.165 Y84.455 E36.31252
G1 X109.441 Y84.539 E36.32212
G1 X109.726 Y84.577 E36.33168
G0 F2000 X109.926 Y84.569
G0 X109.948 Y85.068
G0 X107.772 Y84.963
G0 X106.563 Y83.741
G0 X67.991 Y83.049
G0 X67.492 Y83.026
G1 F1200 X67.499 Y82.877 E36.33664
G1 X67.492 Y82.728 E36.3416
G1 X67.444 Y82.449 E36.35102
G1 X67.349 Y82.177 E36.3606
G1 X67.208 Y81.925 E36.37021
G1 X67.027 Y81.7 E36.37981
G1 X66.81 Y81.509 E36.38942
G1 X66.564 Y81.359 E36.39901
G1 X66.297 Y81.251 E36.40859
G1 X66.015 Y81.19 E36.41818
G1 X65.726 Y81.177 E36.42781
G1 X65.441 Y81.215 E36.43737
G1 X65.165 Y81.299 E36.44696
G1 X64.907 Y81.429 E36.45657
G1 X64.675 Y81.6 E36.46616
G1 X64.476 Y81.809 E36.47576
G1 X64.314 Y82.047 E36.48533
G1 X64.196 Y82.31 E36.49492
G1 X64.122 Y82.589 E36.50452
G1 X64.098 Y82.877 E36.51413
G1 X64.122 Y83.164 E36.52371
G1 X64.196 Y83.444 E36.53334
G1 X64.314 Y83.707 E36.54293
G1 X64.476 Y83.945 E36.55251
G1 X64.675 Y84.154 E36.56211
G1 X64.907 Y84.325 E36.57169
G1 X65.165 Y84.455 E36.5813
G1 X65.441 Y84.539 E36.5909
G1 X65.726 Y84.577 E36.60046
G1 X66.015 Y84.564 E36.61008
G1 X66.297 Y84.503 E36.61968
G1 X66.564 Y84.395 E36.62926
G1 X66.81 Y84.245 E36.63884
G1 X67.027 Y84.054 E36.64846
G1 X67.208 Y83.829 E36.65806
G1 X67.349 Y83.577 E36.66766
G1 X67.444 Y83.305 E36.67725
G1 X67.492 Y83.026 E36.68666
G0 F2000 X67.499 Y82.877
G0 X67.497 Y82.826
G0 X68.074 Y82.782
;TYPE:SKIN
G1 F1200 X68.931 Y83.639 E36.72697
G1 X69.001 Y83.709
G0 F2000 X68.648 Y83.922
G1 F1200 X68.031 Y83.304 E36.75602
G1 X67.961 Y83.234
G0 F2000 X68.134 Y83.974
G1 F1200 X67.896 Y84.301 E36.77562
G1 X67.631 Y84.602 E36.7923
G1 X67.342 Y84.878 E36.80841
G1 X67.024 Y85.126 E36.82649
G0 F2000 X66.951 Y85.619
G1 F1200 X66.405 Y85.072 E36.85219
G0 F2000 X65.915 Y85.148
G1 F1200 X66.668 Y85.902 E36.88764
G1 X66.738 Y85.972
G0 F2000 X66.518 Y86.317
G1 F1200 X65.304 Y85.103 E36.94474
G1 X65.234 Y85.033
G0 F2000 X64.079 Y85.009
G1 F1200 X66.518 Y87.449 E37.05948
G1 X66.588 Y87.519
G0 F2000 X66.518 Y88.014
G1 F1200 X64.079 Y85.575 E37.17421
G1 X64.009 Y85.505
G0 F2000 X64.079 Y86.141
G1 F1200 X66.518 Y88.58 E37.28893
G1 X66.588 Y88.65
G0 F2000 X66.518 Y89.146
G1 F1200 X64.079 Y86.706 E37.40368
G1 X64.009 Y86.636
G0 F2000 X64.079 Y87.272
G1 F1200 X66.518 Y89.712 E37.51842
G1 X66.588 Y89.782
G0 F2000 X66.518 Y90.277
G1 F1200 X64.079 Y87.838 E37.63315
G1 X64.009 Y87.768
G0 F2000 X64.079 Y88.403
G1 F1200 X66.518 Y90.843 E37.74789
G1 X66.588 Y90.913
G0 F2000 X66.518 Y91.409
G1 F1200 X64.079 Y88.969 E37.86264
G1 X64.009 Y88.899
G0 F2000 X64.079 Y89.535
G1 F1200 X66.518 Y91.974 E37.97736
G1 X66.588 Y92.044
